packages/ffe-icons/icons/open/300/lg/arrow_drop_down_circle.svg

<svg xmlns="http://www.w3.org/2000/svg" height="40" viewBox="0 -960 960 960" width="40"><path d="M468.641-385.103q4.809 4.948 11.289 4.948 6.48 0 11.429-4.948l97.055-96.799q6.995-7.251 3.094-17.136-3.9-9.885-14.432-9.885h-195q-10.126 0-13.806 9.885-3.679 9.885 3.573 17.136l96.798 96.799Zm11.426 285.102q-78.426 0-147.666-29.92t-120.887-81.544q-51.647-51.624-81.58-120.833-29.933-69.21-29.933-147.635 0-78.836 29.92-148.204 29.92-69.369 81.544-120.682 51.624-51.314 120.833-81.247 69.21-29.933 147.635-29.933 78.836 0 148.204 29.92 69.369 29.92 120.682 81.21 51.314 51.291 81.247 120.629 29.933 69.337 29.933 148.173 0 78.426-29.92 147.666t-81.21 120.887q-51.291 51.647-120.629 81.58-69.337 29.933-148.173 29.933ZM480-150.256q137.795 0 233.769-96.18Q809.744-342.615 809.744-480q0-137.795-95.975-233.769Q617.795-809.744 480-809.744q-137.385 0-233.564 95.975-96.18 95.974-96.18 233.769 0 137.385 96.18 233.564 96.179 96.18 233.564 96.18ZM480-480Z"/></svg>

<svg xmlns="http://www.w3.org/2000/svg" viewBox="0 -960 960 960" width="32" height="32"><path d="M468.64-385.1q4.81 4.95 11.29 4.95 6.48 0 11.43-4.95l97.05-96.8q7-7.25 3.1-17.14-3.9-9.88-14.43-9.88h-195q-10.13 0-13.81 9.88-3.68 9.89 3.57 17.14l96.8 96.8ZM480.07-100q-78.43 0-147.67-29.92-69.24-29.92-120.89-81.54-51.64-51.63-81.58-120.84Q100-401.51 100-479.93q0-78.84 29.92-148.21t81.54-120.68q51.63-51.31 120.84-81.25Q401.51-860 479.93-860q78.84 0 148.21 29.92t120.68 81.21q51.31 51.29 81.25 120.63Q860-558.9 860-480.07q0 78.43-29.92 147.67-29.92 69.24-81.21 120.89-51.29 51.64-120.63 81.58Q558.9-100 480.07-100Zm-.07-50.26q137.79 0 233.77-96.18 95.97-96.18 95.97-233.56 0-137.79-95.97-233.77-95.98-95.97-233.77-95.97-137.38 0-233.56 95.97-96.18 95.98-96.18 233.77 0 137.38 96.18 233.56T480-150.26ZM480-480Z"/></svg>
